X:1
T:Asilomar, 87.87 D
T:Asilomar, 87.87 D
T:John Harrison Tenney, 1897
T:Public Domain Courtesy of the Cyber Hymnal™
C:John Harrison Tenney, 1897
Z:Public Domain
Z:Courtesy of the Cyber Hymnal™
%%score ( 1 2 ) ( 3 4 )
L:1/8
Q:1/4=95
M:3/4
K:G
V:1 treble 
V:2 treble 
V:3 bass 
V:4 bass 
V:1
 B>c | B3 A GE | D2 G2 A>A | A3 ^G A^A | (B2 G2) B>c | B3 A GE | D2 G2 A>A | A3 G !fermata!BA | %8
 G4 [B,G]>[CA] | [DB]3 [=Fd] [Ec][DB] | [DB]2 [DG]2 [DG]>[DF] | [CE]3 [DF] [DG][Ec] | %12
 (B2 A2) [DB]>[Dc] | [Dd]3 [Dc] [DB][^DA] | (AG) [C=E]2 [Ec]>[_Ec] | [DB]3 [DA] [DG][DF] | [DG]4 |] %17
V:2
 x2 | x6 | x6 | x6 | x6 | x6 | x6 | x6 | x6 | x6 | x6 | x6 | D4 x2 | x6 | _E2 x4 | x6 | x4 |] %17
V:3
 D>E | [G,,D]3 C B,C | B,2 B,2 C>C | C3 B, C^C | (D2 B,2) D>E | D3 C B,C | B,2 B,2 C>C | %7
 C3 B, !fermata!DC | [G,,B,]4 G,>G, | G,3 G, G,G, | G,2 [G,B,]2 [B,,G,]>[B,,G,] | %11
 [C,G,]3 [C,A,] [B,,G,][C,G,] | (G,2 F,2) [G,,G,]>[G,,A,] | [G,,B,]3 [A,,A,] [B,,G,][B,,F,] | %14
 [C,E,]2 [C,G,]2 [C,G,]>[C,G,] | [D,G,]3 [D,C] [D,B,][D,A,] | [G,,B,]4 |] %17
V:4
 G,,2 | x6 | G,,4 D,2 | D,6 | G,,4 G,,2 | G,,6 | G,,4 D,2 | D,6 | x4 G,>G, | G,3 G, G,G, | G,2 x4 | %11
 x6 | D,4 x2 | x6 | x6 | x6 | x4 |] %17

